symbolic/22x22/actions/kstars_solarsystem.svg

<svg xmlns="http://www.w3.org/2000/svg" width="22" height="22" viewBox="0 0 22 22">
 <defs>
  <style id="current-color-scheme" type="text/css">
   .ColorScheme-Text { color:#323a41; } .ColorScheme-Highlight { color:#4285f4; } .ColorScheme-NeutralText { color:#ff9800; } .ColorScheme-PositiveText { color:#4caf50; } .ColorScheme-NegativeText { color:#f44336; }
  </style>
 </defs>
 <path style="fill:currentColor" class="ColorScheme-Text" d="M 8 -0.05078125 L 8 0 A 8 8 0 0 0 0 8 A 8 8 0 0 0 1.3847656 12.498047 A 1.5 1.5 0 0 0 1.2011719 12.75 A 1.5 1.5 0 0 0 1.75 14.75 A 1.5 1.5 0 0 0 3.5078125 14.550781 A 8 8 0 0 0 8 15.949219 A 8 8 0 0 0 16 7.9492188 A 8 8 0 0 0 8 -0.05078125 z M 8 1 A 7 7 0 0 1 15 8 A 7 7 0 0 1 8 15 A 7 7 0 0 1 3.9824219 13.728516 A 1.5 1.5 0 0 0 3.25 12.228516 A 1.5 1.5 0 0 0 2.2773438 12.029297 A 7 7 0 0 1 1 8.0292969 A 7 7 0 0 1 8 1.0292969 L 8 1 z M 8 3 A 5 5 0 0 0 3 8 A 5 5 0 0 0 8 13 A 5 5 0 0 0 11.072266 11.9375 A 1.5 1.5 0 0 0 12.798828 11.25 A 1.5 1.5 0 0 0 12.720703 9.6308594 A 5 5 0 0 0 13 8 A 5 5 0 0 0 8 3 z M 8 4 A 4 4 0 0 1 12 8 A 4 4 0 0 1 11.857422 9.0429688 A 1.5 1.5 0 0 0 10.201172 9.75 A 1.5 1.5 0 0 0 10.238281 11.310547 A 4 4 0 0 1 8 12.009766 A 4 4 0 0 1 4 8.0097656 A 4 4 0 0 1 8 4.0097656 L 8 4 z M 8 6 A 2 2 0 0 0 6 8 A 2 2 0 0 0 8 10 A 2 2 0 0 0 10 8 A 2 2 0 0 0 8 6 z" transform="translate(3 3)"/>
</svg>

<svg xmlns="http://www.w3.org/2000/svg" width="22" height="22"><defs><style id="current-color-scheme" type="text/css"></style></defs><path style="fill:currentColor;color:#323a41" d="M8-.05V0a8 8 0 0 0-8 8 8 8 0 0 0 1.385 4.498 1.5 1.5 0 0 0-.184.252 1.5 1.5 0 0 0 .549 2 1.5 1.5 0 0 0 1.758-.2A8 8 0 0 0 8 15.95a8 8 0 0 0 8-8 8 8 0 0 0-8-8zM8 1a7 7 0 0 1 7 7 7 7 0 0 1-7 7 7 7 0 0 1-4.018-1.271 1.5 1.5 0 0 0-.732-1.5 1.5 1.5 0 0 0-.973-.2A7 7 0 0 1 1 8.03a7 7 0 0 1 7-7V1zm0 2a5 5 0 0 0-5 5 5 5 0 0 0 5 5 5 5 0 0 0 3.072-1.063 1.5 1.5 0 0 0 1.727-.687 1.5 1.5 0 0 0-.078-1.62A5 5 0 0 0 13 8a5 5 0 0 0-5-5zm0 1a4 4 0 0 1 4 4 4 4 0 0 1-.143 1.043 1.5 1.5 0 0 0-1.656.707 1.5 1.5 0 0 0 .037 1.56 4 4 0 0 1-2.238.7 4 4 0 0 1-4-4 4 4 0 0 1 4-4V4zm0 2a2 2 0 0 0-2 2 2 2 0 0 0 2 2 2 2 0 0 0 2-2 2 2 0 0 0-2-2z" transform="translate(3 3)"/></svg>
